X: 20501
Q: "Slow."
M: 3/4
L: 1/8
K: G
|:\
d4g>e | d4g>e | (e<d)(d<c)(c<B) | {B2}A6 :|\
|:\
(3(ded)d2c2 | B3cd2 | (3(ded)d2c2 | B3cd2 |\
g2f2e2 | d2f2g2 | (3(edc)B2A2 | G6 :|


